X:94
T:Oval, Oval, Ol Joli Bous
N:Chant des moisson
M:6/8
L:1/8
N:Assez lent
N:La Bourre 4th edition 1929, page 91
Z:Steve Mansfield www.lesession.co.uk June 2012
K:Bb
B d (d/c/) | d3 d c B | c3 B d (d/c/) |
d3 d c B | !fermata! c4 | F B B (cd) c |
(B/A/) G2 - G3 | c d c B2 F | G F2 - !fermata! F3 |]
<end>
<start>
